icons/desktop/20/shopping-cart-20.svg

<svg width="20" height="20" viewBox="0 0 20 20" fill="none" xmlns="http://www.w3.org/2000/svg">
<g clip-path="url(#clip0_8069_32750)">
<path d="M8.5 17C9.32843 17 10 17.6716 10 18.5C10 19.3284 9.32843 20 8.5 20C7.67157 20 7 19.3284 7 18.5C7 17.6716 7.67157 17 8.5 17Z" fill="black"/>
<path d="M16.5 17C17.3284 17 18 17.6716 18 18.5C18 19.3284 17.3284 20 16.5 20C15.6716 20 15 19.3284 15 18.5C15 17.6716 15.6716 17 16.5 17Z" fill="black"/>
<path fill-rule="evenodd" clip-rule="evenodd" d="M2.57422 1.25C3.99182 1.2501 5.23209 2.20411 5.59473 3.5752L6.13672 5.62109C7.91216 5.27366 10.0832 4.99911 12.5605 5C14.4107 5.00103 16.0907 5.15501 17.5625 5.37891L17.7197 5.40723C19.3286 5.74198 20.3303 7.36956 19.9014 8.96875L18.7295 13.3398C18.4309 14.4556 17.5419 15.329 16.3984 15.5811C15.3298 15.8167 14.029 16 12.5508 16C11.0727 16 9.7734 15.8166 8.7041 15.5811C7.56016 15.329 6.6716 14.4551 6.37207 13.3398L6.37109 13.3369L3.90332 4.02344C3.74389 3.42083 3.19833 3.0001 2.57422 3H0.875C0.391751 3 0 2.60825 0 2.125C0 1.64175 0.391751 1.25 0.875 1.25H2.57422ZM12.0537 6.75391C9.96704 6.78649 8.12374 7.02228 6.58594 7.31738L8.06152 12.8857C8.19597 13.3864 8.59014 13.764 9.08008 13.8721C10.0446 14.0845 11.2171 14.25 12.5508 14.25C13.8846 14.25 15.0581 14.0845 16.0215 13.8721C16.5117 13.7641 16.9055 13.3865 17.0391 12.8867L18.2109 8.51562C18.3861 7.86241 17.9575 7.20934 17.2998 7.10938C15.9057 6.89729 14.3133 6.75098 12.5596 6.75L12.0537 6.75391Z" fill="black"/>
</g>
<defs>
<clipPath id="clip0_8069_32750">
<rect width="20" height="20" fill="white"/>
</clipPath>
</defs>
</svg>

<!-- This Source Code Form is subject to the terms of the Mozilla Public
   - License, v. 2.0. If a copy of the MPL was not distributed with this
   - file, You can obtain one at http://mozilla.org/MPL/2.0/. -->
<svg xmlns="http://www.w3.org/2000/svg" width="20" height="20" fill="context-fill" fill-opacity="context-fill-opacity" viewBox="0 0 20 20">
    <g clip-path="url(#clip0_8069_32750)">
        <path d="M8.5 17a1.5 1.5 0 1 1 0 3 1.5 1.5 0 0 1 0-3M16.5 17a1.5 1.5 0 1 1 0 3 1.5 1.5 0 0 1 0-3" />
        <path fill-rule="evenodd" d="M2.574 1.25c1.418 0 2.658.954 3.02 2.325l.543 2.046a33.4 33.4 0 0 1 11.426-.242l.157.028A2.874 2.874 0 0 1 19.9 8.97l-1.171 4.37a3.11 3.11 0 0 1-2.332 2.242 17.9 17.9 0 0 1-7.694 0 3.11 3.11 0 0 1-2.332-2.241v-.003L3.902 4.023A1.375 1.375 0 0 0 2.574 3H.875a.875.875 0 1 1 0-1.75zm9.48 5.504c-2.087.032-3.93.268-5.468.563l1.476 5.569c.134.5.528.878 1.018.986a16.1 16.1 0 0 0 6.942 0c.49-.108.884-.486 1.017-.985l1.172-4.371a1.123 1.123 0 0 0-.911-1.407 32 32 0 0 0-4.74-.359z" clip-rule="evenodd" />
    </g>
</svg>
